X:1
T:Three Score and Ten
M:4/4
L:1/4
K:D
 D/2E/2| F F3/4 E/4 F3/2 z/2| F F F3/2 A/2| B A D3/2 E/2| F3 A| A3/2 G/2 G G|\
 GF/2-E/2 F D/2F/2| A A G F| E3D/2-E/2| F F F D| F A2 A| B/2 A3/2 D E|\
 F3 A| A A B3/2 A/2| A/2 c3/2 c3/2 B/2| A/2 G3/2 F E| D2||
